;Generated from Cilindro_1672018_16-43-7__tmp-scn.stl 78c200fd36def2536676d0b57ff2e91c163e11ce
;FLAVOR:Marlin
;TIME:6666
;Filament used: 0m
;Layer height: 0.2

;Generated with Cura_SteamEngine 3.4.1
M104 S200
M109 S200
M82 ;absolute extrusion mode
; -- START GCODE --
G21 
G90 
M107 
M206 X500 
G28 X0 Y0 
M107 
G28 
G92 E 
G1 X-98.0 Y-20.0 Z5.0 F3000 
G1 Y-70.0 Z0.3 
G1 X-98.0 Y44.0 F500 E27 
G92 E
; -- end of START GCODE --
G92 E0
G1 F3000 E-1.5
;LAYER_COUNT:101
;LAYER:0
M107
G0 F3600 X1.7 Y-9.651 Z0.2
;TYPE:WALL-OUTER
G1 F3000 E0
G1 F1200 X3.351 Y-9.209 E0.05685
G1 X4.898 Y-8.487 E0.11363
G1 X6.303 Y-7.503 E0.17068
G1 X7.503 Y-6.303 E0.22712
G1 X8.487 Y-4.898 E0.28417
G1 X9.209 Y-3.351 E0.34096
G1 X9.651 Y-1.7 E0.3978
G1 X9.8 Y0.00 E0.45456
G1 X9.651 Y1.7 E0.51132
G1 X9.209 Y3.351 E0.56817
G1 X8.487 Y4.898 E0.62495
G1 X7.503 Y6.303 E0.682
G1 X6.303 Y7.503 E0.73844
G1 X4.898 Y8.487 E0.79549
G1 X3.351 Y9.209 E0.85228
G1 X1.7 Y9.651 E0.90912
G1 X0.00 Y9.8 E0.96588
G1 X-1.7 Y9.651 E1.02264
G1 X-3.351 Y9.209 E1.07949
G1 X-4.898 Y8.487 E1.13627
G1 X-6.303 Y7.503 E1.19332
G1 X-7.503 Y6.303 E1.24976
G1 X-8.487 Y4.898 E1.30682
G1 X-9.209 Y3.351 E1.3636
G1 X-9.651 Y1.7 E1.42044
G1 X-9.8 Y0.00 E1.4772
G1 X-9.651 Y-1.7 E1.53396
G1 X-9.209 Y-3.351 E1.59081
G1 X-8.487 Y-4.898 E1.64759
G1 X-7.503 Y-6.303 E1.70464
G1 X-6.303 Y-7.503 E1.76108
G1 X-4.898 Y-8.487 E1.81814
G1 X-3.351 Y-9.209 E1.87492
G1 X-1.7 Y-9.651 E1.93176
G1 X0.00 Y-9.8 E1.98852
G1 X1.7 Y-9.651 E2.04528
G0 F3600 X1.631 Y-9.256
;TYPE:WALL-INNER
G1 F1200 X3.214 Y-8.832 E2.09979
G1 X4.695 Y-8.141 E2.15414
G1 X6.044 Y-7.196 E2.20893
G1 X7.196 Y-6.044 E2.26311
G1 X8.141 Y-4.695 E2.31789
G1 X8.832 Y-3.214 E2.37225
G1 X9.256 Y-1.631 E2.42676
G1 X9.399 Y0.00 E2.48121
G1 X9.256 Y1.631 E2.53567
G1 X8.832 Y3.214 E2.59017
G1 X8.141 Y4.695 E2.64453
G1 X7.196 Y6.044 E2.69931
G1 X6.044 Y7.196 E2.7535
G1 X4.695 Y8.141 E2.80828
G1 X3.214 Y8.832 E2.86264
G1 X1.631 Y9.256 E2.91714
G1 X0.00 Y9.399 E2.9716
G1 X-1.631 Y9.256 E3.02605
G1 X-3.214 Y8.832 E3.08056
G1 X-4.695 Y8.141 E3.13492
G1 X-6.044 Y7.196 E3.1897
G1 X-7.196 Y6.044 E3.24388
G1 X-8.141 Y4.695 E3.29867
G1 X-8.832 Y3.214 E3.35302
G1 X-9.256 Y1.631 E3.40753
G1 X-9.399 Y0.00 E3.46198
G1 X-9.256 Y-1.631 E3.51644
G1 X-8.832 Y-3.214 E3.57095
G1 X-8.141 Y-4.695 E3.6253
G1 X-7.196 Y-6.044 E3.68008
G1 X-6.044 Y-7.196 E3.73427
G1 X-4.695 Y-8.141 E3.78905
G1 X-3.214 Y-8.832 E3.84341
G1 X-1.631 Y-9.256 E3.89791
G1 X0.00 Y-9.399 E3.95237
G1 X1.631 Y-9.256 E4.00683
G0 F3600 X1.562 Y-8.861
G1 F1200 X3.077 Y-8.455 E4.05899
G1 X4.492 Y-7.795 E4.11092
G1 X5.785 Y-6.889 E4.16344
G1 X6.889 Y-5.785 E4.21536
G1 X7.795 Y-4.492 E4.26788
G1 X8.455 Y-3.077 E4.31981
G1 X8.861 Y-1.562 E4.37197
G1 X8.998 Y0.00 E4.42413
G1 X8.861 Y1.562 E4.47628
G1 X8.455 Y3.077 E4.52844
G1 X7.795 Y4.492 E4.58038
G1 X6.889 Y5.785 E4.63289
G1 X5.785 Y6.889 E4.68482
G1 X4.492 Y7.795 E4.73733
G1 X3.077 Y8.455 E4.78926
G1 X1.562 Y8.861 E4.84143
G1 X0.00 Y8.998 E4.89358
G1 X-1.562 Y8.861 E4.94573
G1 X-3.077 Y8.455 E4.9979
G1 X-4.492 Y7.795 E5.04983
G1 X-5.785 Y6.889 E5.10234
G1 X-6.889 Y5.785 E5.15427
G1 X-7.795 Y4.492 E5.20678
G1 X-8.455 Y3.077 E5.25871
G1 X-8.861 Y1.562 E5.31088
G1 X-8.998 Y0.00 E5.36303
G1 X-8.861 Y-1.562 E5.41518
G1 X-8.455 Y-3.077 E5.46735
G1 X-7.795 Y-4.492 E5.51928
G1 X-6.889 Y-5.785 E5.57179
G1 X-5.785 Y-6.889 E5.62372
G1 X-4.492 Y-7.795 E5.67623
G1 X-3.077 Y-8.455 E5.72816
G1 X-1.562 Y-8.861 E5.78033
G1 X0.00 Y-8.998 E5.83248
G1 X1.562 Y-8.861 E5.88463
G0 F3600 X5.676 Y-6.768
;TYPE:SKIN
G1 F1200 X6.769 Y-5.675 E5.93605
G0 F3600 X7.819 Y-4.059
G1 F1200 X4.06 Y-7.819 E6.11288
G0 F3600 X3.005 Y-8.308
G1 F1200 X8.309 Y-3.004 E6.36236
G0 F3600 X8.516 Y-2.231
G1 F1200 X2.232 Y-8.515 E6.65794
G0 F3600 X1.474 Y-8.708
G1 F1200 X8.708 Y-1.473 E6.99823
G0 F3600 X8.763 Y-.853
G1 F1200 X0.854 Y-8.762 E7.37025
G0 F3600 X0.234 Y-8.816
G1 F1200 X8.816 Y-.234 E7.77392
G0 F3600 X8.809 Y0.323
G1 F1200 X-.323 Y-8.808 E8.20344
G0 F3600 X-.843 Y-8.763
G1 F1200 X8.763 Y0.844 E8.6553
G0 F3600 X8.717 Y1.364
G1 F1200 X-1.363 Y-8.717 E9.12945
G0 F3600 X-1.833 Y-8.621
G1 F1200 X8.622 Y1.834 E9.62122
G0 F3600 X8.502 Y2.28
G1 F1200 X-2.279 Y-8.502 E10.12835
G0 F3600 X-2.725 Y-8.382
G1 F1200 X8.383 Y2.726 E10.65084
G0 F3600 X8.244 Y3.152
G1 F1200 X-3.152 Y-8.243 E11.18685
G0 F3600 X-3.537 Y-8.063
G1 F1200 X8.063 Y3.538 E11.7325
G0 F3600 X7.883 Y3.923
G1 F1200 X-3.923 Y-7.882 E12.2878
G0 F3600 X-4.308 Y-7.702
G1 F1200 X7.703 Y4.309 E12.85276
G0 F3600 X7.484 Y4.655
G1 F1200 X-4.654 Y-7.483 E13.42369
G0 F3600 X-4.987 Y-7.25
G1 F1200 X7.251 Y4.988 E13.99933
G0 F3600 X7.018 Y5.32
G1 F1200 X-5.32 Y-7.017 E14.57965
G0 F3600 X-5.653 Y-6.784
G1 F1200 X6.785 Y5.654 E15.16469
G0 F3600 X6.506 Y5.941
G1 F1200 X-5.941 Y-6.506 E15.75016
G0 F3600 X-6.223 Y-6.223
G1 F1200 X6.223 Y6.223 E16.33558
G0 F3600 X5.941 Y6.506
G1 F1200 X-6.506 Y-5.941 E16.92105
G0 F3600 X-6.785 Y-5.654
G1 F1200 X5.653 Y6.784 E17.5061
G0 F3600 X5.32 Y7.017
G1 F1200 X-7.018 Y-5.32 E18.08641
G0 F3600 X-7.251 Y-4.988
G1 F1200 X4.987 Y7.25 E18.66205
G0 F3600 X4.654 Y7.483
G1 F1200 X-7.484 Y-4.655 E19.23299
G0 F3600 X-7.703 Y-4.309
G1 F1200 X4.308 Y7.702 E19.79795
G0 F3600 X3.923 Y7.882
G1 F1200 X-7.883 Y-3.923 E20.35324
G0 F3600 X-8.063 Y-3.538
G1 F1200 X3.537 Y8.063 E20.89889
G0 F3600 X3.152 Y8.243
G1 F1200 X-8.244 Y-3.152 E21.4349
G0 F3600 X-8.383 Y-2.726
G1 F1200 X2.725 Y8.382 E21.95739
G0 F3600 X2.279 Y8.502
G1 F1200 X-8.502 Y-2.28 E22.46452
G0 F3600 X-8.622 Y-1.834
G1 F1200 X1.833 Y8.621 E22.95629
G0 F3600 X1.363 Y8.717
G1 F1200 X-8.717 Y-1.364 E23.43045
G0 F3600 X-8.763 Y-.844
G1 F1200 X0.843 Y8.763 E23.88231
G0 F3600 X0.323 Y8.808
G1 F1200 X-8.809 Y-.323 E24.31182
G0 F3600 X-8.816 Y0.234
G1 F1200 X-.234 Y8.816 E24.71549
G0 F3600 X-.854 Y8.762
G1 F1200 X-8.763 Y0.853 E25.08751
G0 F3600 X-8.708 Y1.473
G1 F1200 X-1.474 Y8.708 E25.4278
G0 F3600 X-2.232 Y8.515
G1 F1200 X-8.516 Y2.231 E25.72338
G0 F3600 X-8.309 Y3.004
G1 F1200 X-3.005 Y8.308 E25.97286
G0 F3600 X-4.06 Y7.819
G1 F1200 X-7.819 Y4.059 E26.1497
G0 F3600 X-6.769 Y5.675
G1 F1200 X-5.676 Y6.768 E26.20111
G1 F3000 E24.70111
G0 F3600 X1.614 Y-9.158
G0 X1.7 Y-9.651
;TIME_ELAPSED:50.354367
;LAYER:1
M106 S95.6
G0 F4800 X1.7 Y-9.651 Z0.4
;TYPE:WALL-OUTER
G1 F3000 E26.20111
G1 F1200 X3.351 Y-9.209 E26.25568
G1 X4.898 Y-8.487 E26.31019
G1 X6.303 Y-7.503 E26.36496
G1 X7.503 Y-6.303 E26.41915
G1 X8.487 Y-4.898 E26.47392
G1 X9.209 Y-3.351 E26.52843
G1 X9.651 Y-1.7 E26.583
G1 X9.8 Y0.00 E26.63749
G1 X9.651 Y1.7 E26.69198
G1 X9.209 Y3.351 E26.74655
G1 X8.487 Y4.898 E26.80106
G1 X7.503 Y6.303 E26.85583
G1 X6.303 Y7.503 E26.91001
G1 X4.898 Y8.487 E26.96478
G1 X3.351 Y9.209 E27.01929
G1 X1.7 Y9.651 E27.07387
G1 X0.00 Y9.8 E27.12835
G1 X-1.7 Y9.651 E27.18284
G1 X-3.351 Y9.209 E27.23742
G1 X-4.898 Y8.487 E27.29193
G1 X-6.303 Y7.503 E27.3467
G1 X-7.503 Y6.303 E27.40088
G1 X-8.487 Y4.898 E27.45565
G1 X-9.209 Y3.351 E27.51016
G1 X-9.651 Y1.7 E27.56473
G1 X-9.8 Y0.00 E27.61922
G1 X-9.651 Y-1.7 E27.67371
G1 X-9.209 Y-3.351 E27.72828
G1 X-8.487 Y-4.898 E27.78279
G1 X-7.503 Y-6.303 E27.83756
G1 X-6.303 Y-7.503 E27.89175
G1 X-4.898 Y-8.487 E27.94652
G1 X-3.351 Y-9.209 E28.00103
G1 X-1.7 Y-9.651 E28.0556
G1 X0.00 Y-9.8 E28.11009
G1 X1.7 Y-9.651 E28.16458
G0 F4800 X1.631 Y-9.256
;TYPE:WALL-INNER
G1 F2400 X3.214 Y-8.832 E28.2169
G1 X4.695 Y-8.141 E28.26909
G1 X6.044 Y-7.196 E28.32168
G1 X7.196 Y-6.044 E28.3737
G1 X8.141 Y-4.695 E28.42629
G1 X8.832 Y-3.214 E28.47847
G1 X9.256 Y-1.631 E28.53079
G1 X9.399 Y0.00 E28.58307
G1 X9.256 Y1.631 E28.63535
G1 X8.832 Y3.214 E28.68768
G1 X8.141 Y4.695 E28.73986
G1 X7.196 Y6.044 E28.79245
G1 X6.044 Y7.196 E28.84447
G1 X4.695 Y8.141 E28.89706
G1 X3.214 Y8.832 E28.94924
G1 X1.631 Y9.256 E29.00157
G1 X0.00 Y9.399 E29.05384
G1 X-1.631 Y9.256 E29.10612
G1 X-3.214 Y8.832 E29.15845
G1 X-4.695 Y8.141 E29.21063
G1 X-6.044 Y7.196 E29.26322
G1 X-7.196 Y6.044 E29.31524
G1 X-8.141 Y4.695 E29.36783
G1 X-8.832 Y3.214 E29.42001
G1 X-9.256 Y1.631 E29.47234
G1 X-9.399 Y0.00 E29.52461
G1 X-9.256 Y-1.631 E29.57689
G1 X-8.832 Y-3.214 E29.62922
G1 X-8.141 Y-4.695 E29.6814
G1 X-7.196 Y-6.044 E29.73399
G1 X-6.044 Y-7.196 E29.78601
G1 X-4.695 Y-8.141 E29.8386
G1 X-3.214 Y-8.832 E29.89078
G1 X-1.631 Y-9.256 E29.94311
G1 X0.00 Y-9.399 E29.99538
G1 X1.631 Y-9.256 E30.04766
G0 F4800 X1.562 Y-8.861
G1 F2400 X3.077 Y-8.455 E30.09774
G1 X4.492 Y-7.795 E30.1476
G1 X5.785 Y-6.889 E30.19801
G1 X6.889 Y-5.785 E30.24786
G1 X7.795 Y-4.492 E30.29827
G1 X8.455 Y-3.077 E30.34812
G1 X8.861 Y-1.562 E30.3982
G1 X8.998 Y0.00 E30.44827
G1 X8.861 Y1.562 E30.49834
G1 X8.455 Y3.077 E30.54842
G1 X7.795 Y4.492 E30.59827
G1 X6.889 Y5.785 E30.64868
G1 X5.785 Y6.889 E30.69853
G1 X4.492 Y7.795 E30.74894
G1 X3.077 Y8.455 E30.7988
G1 X1.562 Y8.861 E30.84888
G1 X0.00 Y8.998 E30.89894
G1 X-1.562 Y8.861 E30.94901
G1 X-3.077 Y8.455 E30.99909
G1 X-4.492 Y7.795 E31.04894
G1 X-5.785 Y6.889 E31.09935
G1 X-6.889 Y5.785 E31.14921
G1 X-7.795 Y4.492 E31.19962
G1 X-8.455 Y3.077 E31.24947
G1 X-8.861 Y1.562 E31.29955
G1 X-8.998 Y0.00 E31.34962
G1 X-8.861 Y-1.562 E31.39968
G1 X-8.455 Y-3.077 E31.44976
G1 X-7.795 Y-4.492 E31.49962
G1 X-6.889 Y-5.785 E31.55003
G1 X-5.785 Y-6.889 E31.59988
G1 X-4.492 Y-7.795 E31.65029
G1 X-3.077 Y-8.455 E31.70015
G1 X-1.562 Y-8.861 E31.75023
G1 X0.00 Y-8.998 E31.80029
G1 X1.562 Y-8.861 E31.85036
G0 F4800 X-6.768 Y-5.676
;TYPE:SKIN
G1 F2400 X-5.675 Y-6.769 E31.89971
G0 F4800 X-4.059 Y-7.819
G1 F2400 X-7.819 Y-4.06 E32.06947
G0 F4800 X-8.308 Y-3.005
G1 F2400 X-3.004 Y-8.309 E32.30898
G0 F4800 X-2.231 Y-8.516
G1 F2400 X-8.515 Y-2.232 E32.59274
G0 F4800 X-8.708 Y-1.474
G1 F2400 X-1.473 Y-8.708 E32.91941
G0 F4800 X-.853 Y-8.763
G1 F2400 X-8.762 Y-.854 E33.27655
G0 F4800 X-8.816 Y-.234
G1 F2400 X-.234 Y-8.816 E33.66407
G0 F4800 X0.323 Y-8.809
G1 F2400 X-8.808 Y0.323 E34.07641
G0 F4800 X-8.763 Y0.843
G1 F2400 X0.844 Y-8.763 E34.51019
G0 F4800 X1.364 Y-8.717
G1 F2400 X-8.717 Y1.363 E34.96538
G0 F4800 X-8.621 Y1.833
G1 F2400 X1.834 Y-8.622 E35.43748
G0 F4800 X2.28 Y-8.502
G1 F2400 X-8.502 Y2.279 E35.92433
G0 F4800 X-8.382 Y2.725
G1 F2400 X2.726 Y-8.383 E36.42591
G0 F4800 X3.152 Y-8.244
G1 F2400 X-8.243 Y3.152 E36.94048
G0 F4800 X-8.063 Y3.537
G1 F2400 X3.538 Y-8.063 E37.46431
G0 F4800 X3.923 Y-7.883
G1 F2400 X-7.882 Y3.923 E37.99739
G0 F4800 X-7.702 Y4.308
G1 F2400 X4.309 Y-7.703 E38.53975
G0 F4800 X4.655 Y-7.484
G1 F2400 X-7.483 Y4.654 E39.08785
G0 F4800 X-7.25 Y4.987
G1 F2400 X4.988 Y-7.251 E39.64046
G0 F4800 X5.32 Y-7.018
G1 F2400 X-7.017 Y5.32 E40.19757
G0 F4800 X-6.784 Y5.653
G1 F2400 X5.654 Y-6.785 E40.75921
G0 F4800 X5.941 Y-6.506
G1 F2400 X-6.506 Y5.941 E41.32126
G0 F4800 X-6.223 Y6.223
G1 F2400 X6.223 Y-6.223 E41.88327
G0 F4800 X6.506 Y-5.941
G1 F2400 X-5.941 Y6.506 E42.44532
G0 F4800 X-5.654 Y6.785
G1 F2400 X6.784 Y-5.653 E43.00696
G0 F4800 X7.017 Y-5.32
G1 F2400 X-5.32 Y7.018 E43.56407
G0 F4800 X-4.988 Y7.251
G1 F2400 X7.25 Y-4.987 E44.11668
G0 F4800 X7.483 Y-4.654
G1 F2400 X-4.655 Y7.484 E44.66478
G0 F4800 X-4.309 Y7.703
G1 F2400 X7.702 Y-4.308 E45.20714
G0 F4800 X7.882 Y-3.923
G1 F2400 X-3.923 Y7.883 E45.74022
G0 F4800 X-3.538 Y8.063
G1 F2400 X8.063 Y-3.537 E46.26405
G0 F4800 X8.243 Y-3.152
G1 F2400 X-3.152 Y8.244 E46.77862
G0 F4800 X-2.726 Y8.383
G1 F2400 X8.382 Y-2.725 E47.2802
G0 F4800 X8.502 Y-2.279
G1 F2400 X-2.28 Y8.502 E47.76705
G0 F4800 X-1.834 Y8.622
G1 F2400 X8.621 Y-1.833 E48.23915
G0 F4800 X8.717 Y-1.363
G1 F2400 X-1.364 Y8.717 E48.69434
G0 F4800 X-.844 Y8.763
G1 F2400 X8.763 Y-.843 E49.12812
G0 F4800 X8.808 Y-.323
G1 F2400 X-.323 Y8.809 E49.54046
G0 F4800 X0.234 Y8.816
G1 F2400 X8.816 Y0.234 E49.92798
G0 F4800 X8.762 Y0.854
G1 F2400 X0.853 Y8.763 E50.28512
G0 F4800 X1.473 Y8.708
G1 F2400 X8.708 Y1.474 E50.61179
G0 F4800 X8.515 Y2.232
G1 F2400 X2.231 Y8.516 E50.89555
G0 F4800 X3.004 Y8.309
G1 F2400 X8.308 Y3.005 E51.13506
G0 F4800 X7.819 Y4.06
G1 F2400 X4.059 Y7.819 E51.30482
G0 F4800 X5.675 Y6.769
G1 F2400 X6.768 Y5.676 E51.35417
G1 F3000 E49.85417
G0 F4800 X1.614 Y-9.158
G0 X1.7 Y-9.651
;TIME_ELAPSED:75.618021
;LAYER:2
M106 S191.2
G0 F6000 X1.7 Y-9.651 Z0.6
;TYPE:WALL-OUTER
G1 F3000 E51.35417
G1 F1200 X3.351 Y-9.209 E51.40875
G1 X4.898 Y-8.487 E51.46326
G1 X6.303 Y-7.503 E51.51802
G1 X7.503 Y-6.303 E51.57221
G1 X8.487 Y-4.898 E51.62698
G1 X9.209 Y-3.351 E51.68149
G1 X9.651 Y-1.7 E51.73606
G1 X9.8 Y0.00 E51.79055
G1 X9.651 Y1.7 E51.84504
G1 X9.209 Y3.351 E51.89961
G1 X8.487 Y4.898 E51.95412
G1 X7.503 Y6.303 E52.00889
G1 X6.303 Y7.503 E52.06308
G1 X4.898 Y8.487 E52.11785
G1 X3.351 Y9.209 E52.17236
G1 X1.7 Y9.651 E52.22693
G1 X0.00 Y9.8 E52.28142
G1 X-1.7 Y9.651 E52.33591
G1 X-3.351 Y9.209 E52.39048
G1 X-4.898 Y8.487 E52.44499
G1 X-6.303 Y7.503 E52.49976
G1 X-7.503 Y6.303 E52.55395
G1 X-8.487 Y4.898 E52.60872
G1 X-9.209 Y3.351 E52.66323
G1 X-9.651 Y1.7 E52.7178
G1 X-9.8 Y0.00 E52.77229
G1 X-9.651 Y-1.7 E52.82678
G1 X-9.209 Y-3.351 E52.88135
G1 X-8.487 Y-4.898 E52.93586
G1 X-7.503 Y-6.303 E52.99063
G1 X-6.303 Y-7.503 E53.04481
G1 X-4.898 Y-8.487 E53.09958
G1 X-3.351 Y-9.209 E53.15409
G1 X-1.7 Y-9.651 E53.20867
G1 X0.00 Y-9.8 E53.26315
G1 X1.7 Y-9.651 E53.31764
G0 F6000 X1.631 Y-9.256
;TYPE:WALL-INNER
G1 F3600 X3.214 Y-8.832 E53.36997
G1 X4.695 Y-8.141 E53.42215
G1 X6.044 Y-7.196 E53.47474
G1 X7.196 Y-6.044 E53.52676
G1 X8.141 Y-4.695 E53.57935
G1 X8.832 Y-3.214 E53.63153
G1 X9.256 Y-1.631 E53.68386
G1 X9.399 Y0.00 E53.73614
G1 X9.256 Y1.631 E53.78841
G1 X8.832 Y3.214 E53.84074
G1 X8.141 Y4.695 E53.89292
G1 X7.196 Y6.044 E53.94551
G1 X6.044 Y7.196 E53.99753
G1 X4.695 Y8.141 E54.05012
G1 X3.214 Y8.832 E54.1023
G1 X1.631 Y9.256 E54.15463
G1 X0.00 Y9.399 E54.20691
G1 X-1.631 Y9.256 E54.25918
G1 X-3.214 Y8.832 E54.31151
G1 X-4.695 Y8.141 E54.36369
G1 X-6.044 Y7.196 E54.41628
G1 X-7.196 Y6.044 E54.4683
G1 X-8.141 Y4.695 E54.52089
G1 X-8.832 Y3.214 E54.57307
G1 X-9.256 Y1.631 E54.6254
G1 X-9.399 Y0.00 E54.67768
G1 X-9.256 Y-1.631 E54.72995
G1 X-8.832 Y-3.214 E54.78228
G1 X-8.141 Y-4.695 E54.83446
G1 X-7.196 Y-6.044 E54.88705
G1 X-6.044 Y-7.196 E54.93907
G1 X-4.695 Y-8.141 E54.99166
G1 X-3.214 Y-8.832 E55.04384
G1 X-1.631 Y-9.256 E55.09617
G1 X0.00 Y-9.399 E55.14845
G1 X1.631 Y-9.256 E55.20073
G0 F6000 X1.562 Y-8.861
G1 F3600 X3.077 Y-8.455 E55.25081
G1 X4.492 Y-7.795 E55.30066
G1 X5.785 Y-6.889 E55.35107
G1 X6.889 Y-5.785 E55.40092
G1 X7.795 Y-4.492 E55.45133
G1 X8.455 Y-3.077 E55.50119
G1 X8.861 Y-1.562 E55.55127
G1 X8.998 Y0.00 E55.60133
G1 X8.861 Y1.562 E55.6514
G1 X8.455 Y3.077 E55.70148
G1 X7.795 Y4.492 E55.75133
G1 X6.889 Y5.785 E55.80174
G1 X5.785 Y6.889 E55.8516
G1 X4.492 Y7.795 E55.90201
G1 X3.077 Y8.455 E55.95186
G1 X1.562 Y8.861 E56.00194
G1 X0.00 Y8.998 E56.05201
G1 X-1.562 Y8.861 E56.10207
G1 X-3.077 Y8.455 E56.15215
G1 X-4.492 Y7.795 E56.20201
G1 X-5.785 Y6.889 E56.25242
G1 X-6.889 Y5.785 E56.30227
G1 X-7.795 Y4.492 E56.35268
G1 X-8.455 Y3.077 E56.40254
G1 X-8.861 Y1.562 E56.45262
G1 X-8.998 Y0.00 E56.50268
G1 X-8.861 Y-1.562 E56.55275
G1 X-8.455 Y-3.077 E56.60283
G1 X-7.795 Y-4.492 E56.65268
G1 X-6.889 Y-5.785 E56.70309
G1 X-5.785 Y-6.889 E56.75294
G1 X-4.492 Y-7.795 E56.80336
G1 X-3.077 Y-8.455 E56.85321
G1 X-1.562 Y-8.861 E56.90329
G1 X0.00 Y-8.998 E56.95336
G1 X1.562 Y-8.861 E57.00342
G0 F6000 X5.676 Y-6.768
;TYPE:SKIN
G1 F3600 X6.769 Y-5.675 E57.05278
G0 F6000 X7.819 Y-4.059
G1 F3600 X4.06 Y-7.819 E57.22254
G0 F6000 X3.005 Y-8.308
G1 F3600 X8.309 Y-3.004 E57.46204
G0 F6000 X8.516 Y-2.231
G1 F3600 X2.232 Y-8.515 E57.7458
G0 F6000 X1.474 Y-8.708
G1 F3600 X8.708 Y-1.473 E58.07248
G0 F6000 X8.763 Y-.853
G1 F3600 X0.854 Y-8.762 E58.42961
G0 F6000 X0.234 Y-8.816
G1 F3600 X8.816 Y-.234 E58.81714
G0 F6000 X8.809 Y0.323
G1 F3600 X-.323 Y-8.808 E59.22947
G0 F6000 X-.843 Y-8.763
G1 F3600 X8.763 Y0.844 E59.66326
G0 F6000 X8.717 Y1.364
G1 F3600 X-1.363 Y-8.717 E60.11845
G0 F6000 X-1.833 Y-8.621
G1 F3600 X8.622 Y1.834 E60.59055
G0 F6000 X8.502 Y2.28
G1 F3600 X-2.279 Y-8.502 E61.07739
G0 F6000 X-2.725 Y-8.382
G1 F3600 X8.383 Y2.726 E61.57898
G0 F6000 X8.244 Y3.152
G1 F3600 X-3.152 Y-8.243 E62.09355
G0 F6000 X-3.537 Y-8.063
G1 F3600 X8.063 Y3.538 E62.61737
