;Generated from xyzCalibration_cube_1672018_17-7-59__tmp-scn.stl 5d25e315bf4a10702f5f3c4753ebed33df5a7696
;FLAVOR:Marlin
;TIME:6666
;Filament used: 0m
;Layer height: 0.2

;Generated with Cura_SteamEngine 3.4.1
M104 S200
M109 S200
M82 ;absolute extrusion mode
; -- START GCODE --
G21 
G90 
M107 
M206 X500 
G28 X0 Y0 
M107 
G28 
G92 E 
G1 X-98.0 Y-20.0 Z5.0 F3000 
G1 Y-70.0 Z0.3 
G1 X-98.0 Y44.0 F500 E27 
G92 E
; -- end of START GCODE --
G92 E0
G1 F3000 E-1.5
;LAYER_COUNT:101
;LAYER:0
M107
G0 F3600 X9.8 Y9.8 Z0.2
;TYPE:WALL-OUTER
G1 F3000 E0
G1 F1200 X-9.8 Y9.8 E0.6519
G1 X-9.8 Y-9.8 E1.3038
G1 X9.8 Y-9.8 E1.9557
G1 X9.8 Y9.8 E2.60759
G0 F3600 X9.33 Y9.33
G0 X9.4 Y9.4
;TYPE:WALL-INNER
G1 F1200 X-9.4 Y9.4 E3.23289
G1 X-9.4 Y-9.4 E3.85818
G1 X9.4 Y-9.4 E4.48347
G1 X9.4 Y9.4 E5.10876
G0 F3600 X9.33 Y9.33
G0 X9 Y9
G1 F1200 X-9 Y9 E5.70744
G1 X-9 Y-9 E6.30612
G1 X9 Y-9 E6.9048
G1 X9 Y9 E7.50349
G0 F3600 X8.696 Y-8.839
;TYPE:SKIN
G1 F1200 X8.839 Y-8.696 E7.51021
G0 F3600 X8.839 Y-8.131
G1 F1200 X8.131 Y-8.839 E7.54351
G0 F3600 X7.565 Y-8.839
G1 F1200 X8.839 Y-7.565 E7.60344
G0 F3600 X8.839 Y-6.999
G1 F1200 X6.999 Y-8.839 E7.68999
G0 F3600 X6.433 Y-8.839
G1 F1200 X8.839 Y-6.433 E7.80316
G0 F3600 X8.839 Y-5.868
G1 F1200 X5.868 Y-8.839 E7.94291
G0 F3600 X5.302 Y-8.839
G1 F1200 X8.839 Y-5.302 E8.10928
G0 F3600 X8.839 Y-4.736
G1 F1200 X4.736 Y-8.839 E8.30227
G0 F3600 X4.171 Y-8.839
G1 F1200 X8.839 Y-4.171 E8.52184
G0 F3600 X8.839 Y-3.605
G1 F1200 X3.605 Y-8.839 E8.76803
G0 F3600 X3.039 Y-8.839
G1 F1200 X8.839 Y-3.039 E9.04084
G0 F3600 X8.839 Y-2.474
G1 F1200 X2.474 Y-8.839 E9.34023
G0 F3600 X1.908 Y-8.839
G1 F1200 X8.839 Y-1.908 E9.66624
G0 F3600 X8.839 Y-1.342
G1 F1200 X1.342 Y-8.839 E10.01888
G0 F3600 X0.777 Y-8.839
G1 F1200 X8.839 Y-.777 E10.39809
G0 F3600 X8.839 Y-.211
G1 F1200 X0.211 Y-8.839 E10.80393
G0 F3600 X-.354 Y-8.839
G1 F1200 X8.839 Y0.354 E11.23634
G0 F3600 X8.839 Y0.919
G1 F1200 X-.919 Y-8.839 E11.69532
G0 F3600 X-1.485 Y-8.839
G1 F1200 X8.839 Y1.485 E12.18093
G0 F3600 X8.839 Y2.051
G1 F1200 X-2.051 Y-8.839 E12.69317
G0 F3600 X-2.617 Y-8.839
G1 F1200 X8.839 Y2.617 E13.23202
G0 F3600 X8.839 Y3.182
G1 F1200 X-3.182 Y-8.839 E13.79745
G0 F3600 X-3.748 Y-8.839
G1 F1200 X8.839 Y3.748 E14.38951
G0 F3600 X8.839 Y4.314
G1 F1200 X-4.314 Y-8.839 E15.00818
G0 F3600 X-4.879 Y-8.839
G1 F1200 X8.839 Y4.879 E15.65343
G0 F3600 X8.839 Y5.445
G1 F1200 X-5.445 Y-8.839 E16.32531
G0 F3600 X-6.011 Y-8.839
G1 F1200 X8.839 Y6.011 E17.02381
G0 F3600 X8.839 Y6.576
G1 F1200 X-6.576 Y-8.839 E17.74888
G0 F3600 X-7.142 Y-8.839
G1 F1200 X8.839 Y7.142 E18.50058
G0 F3600 X8.839 Y7.708
G1 F1200 X-7.708 Y-8.839 E19.2789
G0 F3600 X-8.273 Y-8.839
G1 F1200 X8.839 Y8.273 E20.0838
G0 F3600 X8.839 Y8.839
G1 F1200 X-8.839 Y-8.839 E20.91532
G0 F3600 X-8.839 Y-8.273
G1 F1200 X8.273 Y8.839 E21.72021
G0 F3600 X7.708 Y8.839
G1 F1200 X-8.839 Y-7.708 E22.49853
G0 F3600 X-8.839 Y-7.142
G1 F1200 X7.142 Y8.839 E23.25023
G0 F3600 X6.576 Y8.839
G1 F1200 X-8.839 Y-6.576 E23.9753
G0 F3600 X-8.839 Y-6.011
G1 F1200 X6.011 Y8.839 E24.6738
G0 F3600 X5.445 Y8.839
G1 F1200 X-8.839 Y-5.445 E25.34568
G0 F3600 X-8.839 Y-4.879
G1 F1200 X4.879 Y8.839 E25.99093
G0 F3600 X4.314 Y8.839
G1 F1200 X-8.839 Y-4.314 E26.60961
G0 F3600 X-8.839 Y-3.748
G1 F1200 X3.748 Y8.839 E27.20166
G0 F3600 X3.182 Y8.839
G1 F1200 X-8.839 Y-3.182 E27.76709
G0 F3600 X-8.839 Y-2.617
G1 F1200 X2.617 Y8.839 E28.30595
G0 F3600 X2.051 Y8.839
G1 F1200 X-8.839 Y-2.051 E28.81818
G0 F3600 X-8.839 Y-1.485
G1 F1200 X1.485 Y8.839 E29.30379
G0 F3600 X0.919 Y8.839
G1 F1200 X-8.839 Y-.919 E29.76277
G0 F3600 X-8.839 Y-.354
G1 F1200 X0.354 Y8.839 E30.19519
G0 F3600 X-.211 Y8.839
G1 F1200 X-8.839 Y0.211 E30.60102
G0 F3600 X-8.839 Y0.777
G1 F1200 X-.777 Y8.839 E30.98023
G0 F3600 X-1.342 Y8.839
G1 F1200 X-8.839 Y1.342 E31.33287
G0 F3600 X-8.839 Y1.908
G1 F1200 X-1.908 Y8.839 E31.65888
G0 F3600 X-2.474 Y8.839
G1 F1200 X-8.839 Y2.474 E31.95827
G0 F3600 X-8.839 Y3.039
G1 F1200 X-3.039 Y8.839 E32.23108
G0 F3600 X-3.605 Y8.839
G1 F1200 X-8.839 Y3.605 E32.47728
G0 F3600 X-8.839 Y4.171
G1 F1200 X-4.171 Y8.839 E32.69684
G0 F3600 X-4.736 Y8.839
G1 F1200 X-8.839 Y4.736 E32.88984
G0 F3600 X-8.839 Y5.302
G1 F1200 X-5.302 Y8.839 E33.05621
G0 F3600 X-5.868 Y8.839
G1 F1200 X-8.839 Y5.868 E33.19595
G0 F3600 X-8.839 Y6.433
G1 F1200 X-6.433 Y8.839 E33.30912
G0 F3600 X-6.999 Y8.839
G1 F1200 X-8.839 Y6.999 E33.39567
G0 F3600 X-8.839 Y7.565
G1 F1200 X-7.565 Y8.839 E33.4556
G0 F3600 X-8.131 Y8.839
G1 F1200 X-8.839 Y8.131 E33.4889
G0 F3600 X-8.839 Y8.696
G1 F1200 X-8.696 Y8.839 E33.49563
G1 F3000 E31.99563
G0 F3600 X9.33 Y9.33
G0 X9.8 Y9.8
;TIME_ELAPSED:62.450098
;LAYER:1
M106 S95.6
G0 F4800 X9.8 Y9.8 Z0.4
;TYPE:WALL-OUTER
G1 F3000 E33.49563
G1 F1200 X-9.8 Y9.8 E34.12145
G1 X-9.8 Y-9.8 E34.74727
G1 X9.8 Y-9.8 E35.37309
G1 X9.8 Y9.8 E35.99892
G0 F4800 X9.33 Y9.33
G0 X9.4 Y9.4
;TYPE:WALL-INNER
G1 F2400 X-9.4 Y9.4 E36.5992
G1 X-9.4 Y-9.4 E37.19947
G1 X9.4 Y-9.4 E37.79975
G1 X9.4 Y9.4 E38.40003
G0 F4800 X9.33 Y9.33
G0 X9 Y9
G1 F2400 X-9 Y9 E38.97477
G1 X-9 Y-9 E39.5495
G1 X9 Y-9 E40.12424
G1 X9 Y9 E40.69897
G0 F4800 X8.696 Y8.839
;TYPE:SKIN
G1 F2400 X8.839 Y8.696 E40.70543
G0 F4800 X8.839 Y8.131
G1 F2400 X8.131 Y8.839 E40.7374
G0 F4800 X7.565 Y8.839
G1 F2400 X8.839 Y7.565 E40.79493
G0 F4800 X8.839 Y6.999
G1 F2400 X6.999 Y8.839 E40.87801
G0 F4800 X6.433 Y8.839
G1 F2400 X8.839 Y6.433 E40.98666
G0 F4800 X8.839 Y5.868
G1 F2400 X5.868 Y8.839 E41.12082
G0 F4800 X5.302 Y8.839
G1 F2400 X8.839 Y5.302 E41.28053
G0 F4800 X8.839 Y4.736
G1 F2400 X4.736 Y8.839 E41.4658
G0 F4800 X4.171 Y8.839
G1 F2400 X8.839 Y4.171 E41.67659
G0 F4800 X8.839 Y3.605
G1 F2400 X3.605 Y8.839 E41.91293
G0 F4800 X3.039 Y8.839
G1 F2400 X8.839 Y3.039 E42.17483
G0 F4800 X8.839 Y2.474
G1 F2400 X2.474 Y8.839 E42.46225
G0 F4800 X1.908 Y8.839
G1 F2400 X8.839 Y1.908 E42.77522
G0 F4800 X8.839 Y1.342
G1 F2400 X1.342 Y8.839 E43.11375
G0 F4800 X0.777 Y8.839
G1 F2400 X8.839 Y0.777 E43.47779
G0 F4800 X8.839 Y0.211
G1 F2400 X0.211 Y8.839 E43.8674
G0 F4800 X-.354 Y8.839
G1 F2400 X8.839 Y-.354 E44.28251
G0 F4800 X8.839 Y-.919
G1 F2400 X-.919 Y8.839 E44.72314
G0 F4800 X-1.485 Y8.839
G1 F2400 X8.839 Y-1.485 E45.18932
G0 F4800 X8.839 Y-2.051
G1 F2400 X-2.051 Y8.839 E45.68106
G0 F4800 X-2.617 Y8.839
G1 F2400 X8.839 Y-2.617 E46.19837
G0 F4800 X8.839 Y-3.182
G1 F2400 X-3.182 Y8.839 E46.74118
G0 F4800 X-3.748 Y8.839
G1 F2400 X8.839 Y-3.748 E47.30955
G0 F4800 X8.839 Y-4.314
G1 F2400 X-4.314 Y8.839 E47.90348
G0 F4800 X-4.879 Y8.839
G1 F2400 X8.839 Y-4.879 E48.52292
G0 F4800 X8.839 Y-5.445
G1 F2400 X-5.445 Y8.839 E49.16792
G0 F4800 X-6.011 Y8.839
G1 F2400 X8.839 Y-6.011 E49.83848
G0 F4800 X8.839 Y-6.576
G1 F2400 X-6.576 Y8.839 E50.53455
G0 F4800 X-7.142 Y8.839
G1 F2400 X8.839 Y-7.142 E51.25618
G0 F4800 X8.839 Y-7.708
G1 F2400 X-7.708 Y8.839 E52.00337
G0 F4800 X-8.273 Y8.839
G1 F2400 X8.839 Y-8.273 E52.77607
G0 F4800 X8.839 Y-8.839
G1 F2400 X-8.839 Y8.839 E53.57433
G0 F4800 X-8.839 Y8.273
G1 F2400 X8.273 Y-8.839 E54.34703
G0 F4800 X7.708 Y-8.839
G1 F2400 X-8.839 Y7.708 E55.09422
G0 F4800 X-8.839 Y7.142
G1 F2400 X7.142 Y-8.839 E55.81585
G0 F4800 X6.576 Y-8.839
G1 F2400 X-8.839 Y6.576 E56.51192
G0 F4800 X-8.839 Y6.011
G1 F2400 X6.011 Y-8.839 E57.18248
G0 F4800 X5.445 Y-8.839
G1 F2400 X-8.839 Y5.445 E57.82748
G0 F4800 X-8.839 Y4.879
G1 F2400 X4.879 Y-8.839 E58.44692
G0 F4800 X4.314 Y-8.839
G1 F2400 X-8.839 Y4.314 E59.04085
G0 F4800 X-8.839 Y3.748
G1 F2400 X3.748 Y-8.839 E59.60922
G0 F4800 X3.182 Y-8.839
G1 F2400 X-8.839 Y3.182 E60.15203
G0 F4800 X-8.839 Y2.617
G1 F2400 X2.617 Y-8.839 E60.66933
G0 F4800 X2.051 Y-8.839
G1 F2400 X-8.839 Y2.051 E61.16108
G0 F4800 X-8.839 Y1.485
G1 F2400 X1.485 Y-8.839 E61.62726
G0 F4800 X0.919 Y-8.839
G1 F2400 X-8.839 Y0.919 E62.06789
G0 F4800 X-8.839 Y0.354
G1 F2400 X0.354 Y-8.839 E62.483
G0 F4800 X-.211 Y-8.839
G1 F2400 X-8.839 Y-.211 E62.87261
G0 F4800 X-8.839 Y-.777
G1 F2400 X-.777 Y-8.839 E63.23665
G0 F4800 X-1.342 Y-8.839
G1 F2400 X-8.839 Y-1.342 E63.57518
G0 F4800 X-8.839 Y-1.908
G1 F2400 X-1.908 Y-8.839 E63.88815
G0 F4800 X-2.474 Y-8.839
G1 F2400 X-8.839 Y-2.474 E64.17557
G0 F4800 X-8.839 Y-3.039
G1 F2400 X-3.039 Y-8.839 E64.43747
G0 F4800 X-3.605 Y-8.839
G1 F2400 X-8.839 Y-3.605 E64.67381
G0 F4800 X-8.839 Y-4.171
G1 F2400 X-4.171 Y-8.839 E64.8846
G0 F4800 X-4.736 Y-8.839
G1 F2400 X-8.839 Y-4.736 E65.06987
G0 F4800 X-8.839 Y-5.302
G1 F2400 X-5.302 Y-8.839 E65.22958
G0 F4800 X-5.868 Y-8.839
G1 F2400 X-8.839 Y-5.868 E65.36374
G0 F4800 X-8.839 Y-6.433
G1 F2400 X-6.433 Y-8.839 E65.47239
G0 F4800 X-6.999 Y-8.839
G1 F2400 X-8.839 Y-6.999 E65.55547
G0 F4800 X-8.839 Y-7.565
G1 F2400 X-7.565 Y-8.839 E65.613
G0 F4800 X-8.131 Y-8.839
G1 F2400 X-8.839 Y-8.131 E65.64497
G0 F4800 X-8.839 Y-8.696
G1 F2400 X-8.696 Y-8.839 E65.65143
G1 F3000 E64.15143
G0 F4800 X9.33 Y9.33
G0 X9.8 Y9.8
;TIME_ELAPSED:94.877553
;LAYER:2
M106 S191.2
G0 F6000 X9.8 Y9.8 Z0.6
;TYPE:WALL-OUTER
G1 F3000 E65.65143
G1 F1200 X-9.8 Y9.8 E66.27725
G1 X-9.8 Y-9.8 E66.90307
G1 X9.8 Y-9.8 E67.52889
G1 X9.8 Y9.8 E68.15472
G0 F6000 X9.33 Y9.33
G0 X9.4 Y9.4
;TYPE:WALL-INNER
G1 F3600 X-9.4 Y9.4 E68.755
G1 X-9.4 Y-9.4 E69.35528
G1 X9.4 Y-9.4 E69.95555
G1 X9.4 Y9.4 E70.55583
G0 F6000 X9.33 Y9.33
G0 X9 Y9
G1 F3600 X-9 Y9 E71.13057
G1 X-9 Y-9 E71.7053
G1 X9 Y-9 E72.28004
G1 X9 Y9 E72.85477
G0 F6000 X8.696 Y-8.839
;TYPE:SKIN
G1 F3600 X8.839 Y-8.696 E72.86123
G0 F6000 X8.839 Y-8.131
G1 F3600 X8.131 Y-8.839 E72.8932
G0 F6000 X7.565 Y-8.839
G1 F3600 X8.839 Y-7.565 E72.95073
G0 F6000 X8.839 Y-6.999
G1 F3600 X6.999 Y-8.839 E73.03382
G0 F6000 X6.433 Y-8.839
G1 F3600 X8.839 Y-6.433 E73.14246
G0 F6000 X8.839 Y-5.868
G1 F3600 X5.868 Y-8.839 E73.27662
G0 F6000 X5.302 Y-8.839
G1 F3600 X8.839 Y-5.302 E73.43633
G0 F6000 X8.839 Y-4.736
G1 F3600 X4.736 Y-8.839 E73.6216
G0 F6000 X4.171 Y-8.839
G1 F3600 X8.839 Y-4.171 E73.83239
G0 F6000 X8.839 Y-3.605
G1 F3600 X3.605 Y-8.839 E74.06873
G0 F6000 X3.039 Y-8.839
G1 F3600 X8.839 Y-3.039 E74.33063
G0 F6000 X8.839 Y-2.474
G1 F3600 X2.474 Y-8.839 E74.61805
G0 F6000 X1.908 Y-8.839
G1 F3600 X8.839 Y-1.908 E74.93102
G0 F6000 X8.839 Y-1.342
G1 F3600 X1.342 Y-8.839 E75.26955
G0 F6000 X0.777 Y-8.839
G1 F3600 X8.839 Y-.777 E75.6336
G0 F6000 X8.839 Y-.211
G1 F3600 X0.211 Y-8.839 E76.0232
G0 F6000 X-.354 Y-8.839
G1 F3600 X8.839 Y0.354 E76.43831
G0 F6000 X8.839 Y0.919
G1 F3600 X-.919 Y-8.839 E76.87894
G0 F6000 X-1.485 Y-8.839
G1 F3600 X8.839 Y1.485 E77.34512
G0 F6000 X8.839 Y2.051
G1 F3600 X-2.051 Y-8.839 E77.83687
G0 F6000 X-2.617 Y-8.839
G1 F3600 X8.839 Y2.617 E78.35417
G0 F6000 X8.839 Y3.182
G1 F3600 X-3.182 Y-8.839 E78.89698
G0 F6000 X-3.748 Y-8.839
G1 F3600 X8.839 Y3.748 E79.46535
G0 F6000 X8.839 Y4.314
G1 F3600 X-4.314 Y-8.839 E80.05928
G0 F6000 X-4.879 Y-8.839
G1 F3600 X8.839 Y4.879 E80.67872
G0 F6000 X8.839 Y5.445
G1 F3600 X-5.445 Y-8.839 E81.32372
G0 F6000 X-6.011 Y-8.839
G1 F3600 X8.839 Y6.011 E81.99428
G0 F6000 X8.839 Y6.576
G1 F3600 X-6.576 Y-8.839 E82.69035
G0 F6000 X-7.142 Y-8.839
G1 F3600 X8.839 Y7.142 E83.41198
G0 F6000 X8.839 Y7.708
G1 F3600 X-7.708 Y-8.839 E84.15917
G0 F6000 X-8.273 Y-8.839
G1 F3600 X8.839 Y8.273 E84.93187
G0 F6000 X8.839 Y8.839
G1 F3600 X-8.839 Y-8.839 E85.73013
G0 F6000 X-8.839 Y-8.273
G1 F3600 X8.273 Y8.839 E86.50283
G0 F6000 X7.708 Y8.839
G1 F3600 X-8.839 Y-7.708 E87.25002
G0 F6000 X-8.839 Y-7.142
G1 F3600 X7.142 Y8.839 E87.97165
G0 F6000 X6.576 Y8.839
G1 F3600 X-8.839 Y-6.576 E88.66772
G0 F6000 X-8.839 Y-6.011
G1 F3600 X6.011 Y8.839 E89.33828
G0 F6000 X5.445 Y8.839
G1 F3600 X-8.839 Y-5.445 E89.98328
G0 F6000 X-8.839 Y-4.879
G1 F3600 X4.879 Y8.839 E90.60272
G0 F6000 X4.314 Y8.839
G1 F3600 X-8.839 Y-4.314 E91.19665
G0 F6000 X-8.839 Y-3.748
G1 F3600 X3.748 Y8.839 E91.76502
G0 F6000 X3.182 Y8.839
G1 F3600 X-8.839 Y-3.182 E92.30783
G0 F6000 X-8.839 Y-2.617
G1 F3600 X2.617 Y8.839 E92.82514
G0 F6000 X2.051 Y8.839
G1 F3600 X-8.839 Y-2.051 E93.31688
G0 F6000 X-8.839 Y-1.485
G1 F3600 X1.485 Y8.839 E93.78306
G0 F6000 X0.919 Y8.839
G1 F3600 X-8.839 Y-.919 E94.22369
G0 F6000 X-8.839 Y-.354
G1 F3600 X0.354 Y8.839 E94.6388
G0 F6000 X-.211 Y8.839
G1 F3600 X-8.839 Y0.211 E95.02841
G0 F6000 X-8.839 Y0.777
G1 F3600 X-.777 Y8.839 E95.39245
G0 F6000 X-1.342 Y8.839
G1 F3600 X-8.839 Y1.342 E95.73098
G0 F6000 X-8.839 Y1.908
G1 F3600 X-1.908 Y8.839 E96.04395
G0 F6000 X-2.474 Y8.839
G1 F3600 X-8.839 Y2.474 E96.33137
G0 F6000 X-8.839 Y3.039
G1 F3600 X-3.039 Y8.839 E96.59327
G0 F6000 X-3.605 Y8.839
G1 F3600 X-8.839 Y3.605 E96.82961
G0 F6000 X-8.839 Y4.171
G1 F3600 X-4.171 Y8.839 E97.0404
G0 F6000 X-4.736 Y8.839
G1 F3600 X-8.839 Y4.736 E97.22567
G0 F6000 X-8.839 Y5.302
G1 F3600 X-5.302 Y8.839 E97.38539
G0 F6000 X-5.868 Y8.839
G1 F3600 X-8.839 Y5.868 E97.51954
G0 F6000 X-8.839 Y6.433
G1 F3600 X-6.433 Y8.839 E97.62819
G0 F6000 X-6.999 Y8.839
G1 F3600 X-8.839 Y6.999 E97.71127
G0 F6000 X-8.839 Y7.565
G1 F3600 X-7.565 Y8.839 E97.7688
G0 F6000 X-8.131 Y8.839
G1 F3600 X-8.839 Y8.131 E97.80077
G0 F6000 X-8.839 Y8.696
G1 F3600 X-8.696 Y8.839 E97.80723
G1 F3000 E96.30723
G0 F6000 X9.33 Y9.33
G0 X9.8 Y9.8
;TIME_ELAPSED:121.852440
;LAYER:3
G0 X9.8 Y9.8 Z0.8
;TYPE:WALL-OUTER
G1 F3000 E97.80723
G1 F1200 X-9.8 Y9.8 E98.43305
G1 X-9.8 Y-9.8 E99.05887
G1 X9.8 Y-9.8 E99.6847
G1 X9.8 Y9.8 E100.31052
G0 F6000 X9.33 Y9.33
G0 X9.4 Y9.4
;TYPE:WALL-INNER
G1 F3600 X-9.4 Y9.4 E100.9108
G1 X-9.4 Y-9.4 E101.51108
G1 X9.4 Y-9.4 E102.11136
G1 X9.4 Y9.4 E102.71163
G0 F6000 X9.33 Y9.33
G0 X9 Y9
G1 F3600 X-9 Y9 E103.28637
G1 X-9 Y-9 E103.8611
G1 X9 Y-9 E104.43584
G1 X9 Y9 E105.01057
G0 F6000 X8.696 Y8.839
;TYPE:SKIN
G1 F3600 X8.839 Y8.696 E105.01703
G0 F6000 X8.839 Y8.131
G1 F3600 X8.131 Y8.839 E105.049
G0 F6000 X7.565 Y8.839
G1 F3600 X8.839 Y7.565 E105.10653
G0 F6000 X8.839 Y6.999
G1 F3600 X6.999 Y8.839 E105.18962
G0 F6000 X6.433 Y8.839
G1 F3600 X8.839 Y6.433 E105.29826
G0 F6000 X8.839 Y5.868
G1 F3600 X5.868 Y8.839 E105.43242
G0 F6000 X5.302 Y8.839
G1 F3600 X8.839 Y5.302 E105.59213
G0 F6000 X8.839 Y4.736
G1 F3600 X4.736 Y8.839 E105.7774
G0 F6000 X4.171 Y8.839
G1 F3600 X8.839 Y4.171 E105.98819
G0 F6000 X8.839 Y3.605
G1 F3600 X3.605 Y8.839 E106.22453
G0 F6000 X3.039 Y8.839
G1 F3600 X8.839 Y3.039 E106.48644
G0 F6000 X8.839 Y2.474
G1 F3600 X2.474 Y8.839 E106.77385
G0 F6000 X1.908 Y8.839
G1 F3600 X8.839 Y1.908 E107.08682
G0 F6000 X8.839 Y1.342
G1 F3600 X1.342 Y8.839 E107.42535
G0 F6000 X0.777 Y8.839
G1 F3600 X8.839 Y0.777 E107.7894
G0 F6000 X8.839 Y0.211
G1 F3600 X0.211 Y8.839 E108.179
G0 F6000 X-.354 Y8.839
G1 F3600 X8.839 Y-.354 E108.59411
G0 F6000 X8.839 Y-.919
G1 F3600 X-.919 Y8.839 E109.03474
G0 F6000 X-1.485 Y8.839
G1 F3600 X8.839 Y-1.485 E109.50092
G0 F6000 X8.839 Y-2.051
G1 F3600 X-2.051 Y8.839 E109.99267
G0 F6000 X-2.617 Y8.839
G1 F3600 X8.839 Y-2.617 E110.50997
G0 F6000 X8.839 Y-3.182
G1 F3600 X-3.182 Y8.839 E111.05278
G0 F6000 X-3.748 Y8.839
G1 F3600 X8.839 Y-3.748 E111.62115
G0 F6000 X8.839 Y-4.314
G1 F3600 X-4.314 Y8.839 E112.21508
G0 F6000 X-4.879 Y8.839
G1 F3600 X8.839 Y-4.879 E112.83453
G0 F6000 X8.839 Y-5.445
G1 F3600 X-5.445 Y8.839 E113.47953
G0 F6000 X-6.011 Y8.839
G1 F3600 X8.839 Y-6.011 E114.15008
G0 F6000 X8.839 Y-6.576
G1 F3600 X-6.576 Y8.839 E114.84616
G0 F6000 X-7.142 Y8.839
G1 F3600 X8.839 Y-7.142 E115.56778
G0 F6000 X8.839 Y-7.708
G1 F3600 X-7.708 Y8.839 E116.31497
G0 F6000 X-8.273 Y8.839
G1 F3600 X8.839 Y-8.273 E117.08767
G0 F6000 X8.839 Y-8.839
G1 F3600 X-8.839 Y8.839 E117.88593
G0 F6000 X-8.839 Y8.273
G1 F3600 X8.273 Y-8.839 E118.65863
G0 F6000 X7.708 Y-8.839
G1 F3600 X-8.839 Y7.708 E119.40582
G0 F6000 X-8.839 Y7.142
G1 F3600 X7.142 Y-8.839 E120.12745
G0 F6000 X6.576 Y-8.839
G1 F3600 X-8.839 Y6.576 E120.82352
G0 F6000 X-8.839 Y6.011
G1 F3600 X6.011 Y-8.839 E121.49408
G0 F6000 X5.445 Y-8.839
G1 F3600 X-8.839 Y5.445 E122.13908
G0 F6000 X-8.839 Y4.879
G1 F3600 X4.879 Y-8.839 E122.75852
G0 F6000 X4.314 Y-8.839
G1 F3600 X-8.839 Y4.314 E123.35245
G0 F6000 X-8.839 Y3.748
G1 F3600 X3.748 Y-8.839 E123.92082
G0 F6000 X3.182 Y-8.839
G1 F3600 X-8.839 Y3.182 E124.46364
G0 F6000 X-8.839 Y2.617
G1 F3600 X2.617 Y-8.839 E124.98094
G0 F6000 X2.051 Y-8.839
G1 F3600 X-8.839 Y2.051 E125.47268
G0 F6000 X-8.839 Y1.485
