;Generated from xyzCalibration_cube_1672018_17-7-59__tmp-scn.stl 5d25e315bf4a10702f5f3c4753ebed33df5a7696
;FLAVOR:Marlin
;TIME:6666
;Filament used: 0m
;Layer height: 0.2

;Generated with Cura_SteamEngine 3.4.1
M104 S200
M109 S200
M82 ;absolute extrusion mode

G92 E0
G1 F3000 E-1.5
;LAYER_COUNT:101
;LAYER:0
M107
G0 F3600 X9.8 Y9.8 Z0.2
;TYPE:WALL-OUTER
G1 F3000 E0
G1 F1200 X-9.8 Y9.8 E0.6519
G1 X-9.8 Y-9.8 E1.3038
G1 X9.8 Y-9.8 E1.9557
G1 X9.8 Y9.8 E2.60759
G0 F3600 X9.33 Y9.33
G0 X9.4 Y9.4
;TYPE:WALL-INNER
G1 F1200 X-9.4 Y9.4 E3.23289
G1 X-9.4 Y-9.4 E3.85818
G1 X9.4 Y-9.4 E4.48347
G1 X9.4 Y9.4 E5.10876
G0 F3600 X9.33 Y9.33
G0 X9 Y9
G1 F1200 X-9 Y9 E5.70744
G1 X-9 Y-9 E6.30612
G1 X9 Y-9 E6.9048
G1 X9 Y9 E7.50349
G0 F3600 X8.696 Y-8.839
;TYPE:SKIN
G1 F1200 X8.839 Y-8.696 E7.51021
G0 F3600 X8.839 Y-8.131
G1 F1200 X8.131 Y-8.839 E7.54351
G0 F3600 X7.565 Y-8.839
G1 F1200 X8.839 Y-7.565 E7.60344
G0 F3600 X8.839 Y-6.999
G1 F1200 X6.999 Y-8.839 E7.68999
G0 F3600 X6.433 Y-8.839
G1 F1200 X8.839 Y-6.433 E7.80316
G0 F3600 X8.839 Y-5.868
G1 F1200 X5.868 Y-8.839 E7.94291
G0 F3600 X5.302 Y-8.839
G1 F1200 X8.839 Y-5.302 E8.10928
G0 F3600 X8.839 Y-4.736
G1 F1200 X4.736 Y-8.839 E8.30227
G0 F3600 X4.171 Y-8.839
G1 F1200 X8.839 Y-4.171 E8.52184
G0 F3600 X8.839 Y-3.605
G1 F1200 X3.605 Y-8.839 E8.76803
G0 F3600 X3.039 Y-8.839
G1 F1200 X8.839 Y-3.039 E9.04084
G0 F3600 X8.839 Y-2.474
G1 F1200 X2.474 Y-8.839 E9.34023
G0 F3600 X1.908 Y-8.839
G1 F1200 X8.839 Y-1.908 E9.66624
G0 F3600 X8.839 Y-1.342
G1 F1200 X1.342 Y-8.839 E10.01888
G0 F3600 X0.777 Y-8.839
G1 F1200 X8.839 Y-.777 E10.39809
G0 F3600 X8.839 Y-.211
G1 F1200 X0.211 Y-8.839 E10.80393
G0 F3600 X-.354 Y-8.839
G1 F1200 X8.839 Y0.354 E11.23634
G0 F3600 X8.839 Y0.919
G1 F1200 X-.919 Y-8.839 E11.69532
G0 F3600 X-1.485 Y-8.839
G1 F1200 X8.839 Y1.485 E12.18093
G0 F3600 X8.839 Y2.051
G1 F1200 X-2.051 Y-8.839 E12.69317
G0 F3600 X-2.617 Y-8.839
G1 F1200 X8.839 Y2.617 E13.23202
G0 F3600 X8.839 Y3.182
G1 F1200 X-3.182 Y-8.839 E13.79745
G0 F3600 X-3.748 Y-8.839
G1 F1200 X8.839 Y3.748 E14.38951
G0 F3600 X8.839 Y4.314
G1 F1200 X-4.314 Y-8.839 E15.00818
G0 F3600 X-4.879 Y-8.839
G1 F1200 X8.839 Y4.879 E15.65343
G0 F3600 X8.839 Y5.445
G1 F1200 X-5.445 Y-8.839 E16.32531
G0 F3600 X-6.011 Y-8.839
G1 F1200 X8.839 Y6.011 E17.02381
G0 F3600 X8.839 Y6.576
G1 F1200 X-6.576 Y-8.839 E17.74888
G0 F3600 X-7.142 Y-8.839
G1 F1200 X8.839 Y7.142 E18.50058
G0 F3600 X8.839 Y7.708
G1 F1200 X-7.708 Y-8.839 E19.2789
G0 F3600 X-8.273 Y-8.839
G1 F1200 X8.839 Y8.273 E20.0838
G0 F3600 X8.839 Y8.839
G1 F1200 X-8.839 Y-8.839 E20.91532
G0 F3600 X-8.839 Y-8.273
G1 F1200 X8.273 Y8.839 E21.72021
G0 F3600 X7.708 Y8.839
G1 F1200 X-8.839 Y-7.708 E22.49853
G0 F3600 X-8.839 Y-7.142
G1 F1200 X7.142 Y8.839 E23.25023
G0 F3600 X6.576 Y8.839
G1 F1200 X-8.839 Y-6.576 E23.9753
G0 F3600 X-8.839 Y-6.011
G1 F1200 X6.011 Y8.839 E24.6738
G0 F3600 X5.445 Y8.839
G1 F1200 X-8.839 Y-5.445 E25.34568
G0 F3600 X-8.839 Y-4.879
G1 F1200 X4.879 Y8.839 E25.99093
G0 F3600 X4.314 Y8.839
G1 F1200 X-8.839 Y-4.314 E26.60961
G0 F3600 X-8.839 Y-3.748
G1 F1200 X3.748 Y8.839 E27.20166
G0 F3600 X3.182 Y8.839
G1 F1200 X-8.839 Y-3.182 E27.76709
G0 F3600 X-8.839 Y-2.617
G1 F1200 X2.617 Y8.839 E28.30595
G0 F3600 X2.051 Y8.839
G1 F1200 X-8.839 Y-2.051 E28.81818
G0 F3600 X-8.839 Y-1.485
G1 F1200 X1.485 Y8.839 E29.30379
G0 F3600 X0.919 Y8.839
G1 F1200 X-8.839 Y-.919 E29.76277
G0 F3600 X-8.839 Y-.354
G1 F1200 X0.354 Y8.839 E30.19519
G0 F3600 X-.211 Y8.839
G1 F1200 X-8.839 Y0.211 E30.60102
G0 F3600 X-8.839 Y0.777
G1 F1200 X-.777 Y8.839 E30.98023
G0 F3600 X-1.342 Y8.839
G1 F1200 X-8.839 Y1.342 E31.33287
G0 F3600 X-8.839 Y1.908
G1 F1200 X-1.908 Y8.839 E31.65888
G0 F3600 X-2.474 Y8.839
G1 F1200 X-8.839 Y2.474 E31.95827
G0 F3600 X-8.839 Y3.039
G1 F1200 X-3.039 Y8.839 E32.23108
G0 F3600 X-3.605 Y8.839
G1 F1200 X-8.839 Y3.605 E32.47728
G0 F3600 X-8.839 Y4.171
G1 F1200 X-4.171 Y8.839 E32.69684
G0 F3600 X-4.736 Y8.839
G1 F1200 X-8.839 Y4.736 E32.88984
G0 F3600 X-8.839 Y5.302
G1 F1200 X-5.302 Y8.839 E33.05621
G0 F3600 X-5.868 Y8.839
G1 F1200 X-8.839 Y5.868 E33.19595
G0 F3600 X-8.839 Y6.433
G1 F1200 X-6.433 Y8.839 E33.30912
G0 F3600 X-6.999 Y8.839
G1 F1200 X-8.839 Y6.999 E33.39567
G0 F3600 X-8.839 Y7.565
G1 F1200 X-7.565 Y8.839 E33.4556
G0 F3600 X-8.131 Y8.839
G1 F1200 X-8.839 Y8.131 E33.4889
G0 F3600 X-8.839 Y8.696
G1 F1200 X-8.696 Y8.839 E33.49563
G1 F3000 E31.99563
G0 F3600 X9.33 Y9.33
G0 X9.8 Y9.8
;TIME_ELAPSED:62.450098
